Sources/FrostedUI/Resources/Icons.xcassets/bank32.imageset/bank-32.svg

<svg width="32" height="32" viewBox="0 0 32 32" fill="none" xmlns="http://www.w3.org/2000/svg" data-fui-icon="true">
  <path
    d="M14.6914 0.355225C15.5078 -0.0864666 16.4922 -0.0864484 17.3086 0.355225L30.3086 7.39038C31.1964 7.87086 31.7499 8.79983 31.75 9.80933V11.3328C31.75 12.1152 31.1154 12.7498 30.333 12.7498H28.3496V26.0603C29.719 26.3381 30.7499 27.5484 30.75 28.9998C30.75 30.6566 29.4069 31.9998 27.75 31.9998H4.25C2.59315 31.9998 1.25 30.6566 1.25 28.9998C1.25013 27.5484 2.28097 26.3381 3.65039 26.0603V12.7498H1.66699C0.884589 12.7498 0.25 12.1152 0.25 11.3328V9.80933C0.250098 8.79983 0.803565 7.87086 1.69141 7.39038L14.6914 0.355225ZM4.25 27.4998C3.42166 27.4998 2.75014 28.1715 2.75 28.9998C2.75 29.8282 3.42157 30.4998 4.25 30.4998H27.75C28.5784 30.4998 29.25 29.8282 29.25 28.9998C29.2499 28.1715 28.5783 27.4998 27.75 27.4998H4.25ZM5.15039 12.7498V25.9998H9V12.7498H5.15039ZM10.5 12.7498V25.9998H21.5V12.7498H10.5ZM23 12.7498V25.9998H26.8496V12.7498H23ZM16.5947 1.67456C16.2237 1.47387 15.7763 1.47385 15.4053 1.67456L2.40527 8.70972C2.00175 8.92809 1.7501 9.35052 1.75 9.80933V11.2498H30.25V9.80933C30.2499 9.35052 29.9982 8.92809 29.5947 8.70972L16.5947 1.67456Z"
    fill="currentColor"
  />
</svg>

<svg xmlns="http://www.w3.org/2000/svg" width="32" height="32" fill="none" data-fui-icon="true" viewBox="0 0 32 32"><path fill="currentColor" d="M14.691.355a2.75 2.75 0 0 1 2.618 0l13 7.035a2.75 2.75 0 0 1 1.441 2.42v1.523c0 .782-.635 1.417-1.417 1.417H28.35v13.31a3 3 0 0 1-.6 5.94H4.25a3 3 0 0 1-.6-5.94V12.75H1.667A1.417 1.417 0 0 1 .25 11.333V9.809c0-1.01.554-1.938 1.441-2.419zM4.25 27.5a1.5 1.5 0 0 0 0 3h23.5a1.5 1.5 0 0 0 0-3zm.9-14.75V26H9V12.75zm5.35 0V26h11V12.75zm12.5 0V26h3.85V12.75zM16.595 1.675a1.25 1.25 0 0 0-1.19 0l-13 7.035c-.403.218-.655.64-.655 1.1v1.44h28.5V9.81c0-.46-.252-.882-.655-1.1z"/></svg>
